!!!ONB: breves and longs should be cleared; b. 26 time signatures and [] need to be improved
!!!COM: Gaspar van Weerbeke
!!!CDT: ~1450-~1517
!!!OPR: Lamentatio Ieremiae prophetae
!!!OTL: Sabato sancto. Lectio secunda
!!!OMV: 5
!!!AGN: Motet; Lamentation
!!!SCT: Gas0501e
!!!SCA: Gas0501e
!!!voices: 4
**kern	**text	**kern	**text	**kern	**text	**kern	**text
*part4	*part4	*part3	*part3	*part2	*part2	*part1	*part1
*staff4	*staff4	*staff3	*staff3	*staff2	*staff2	*staff1	*staff1
*I"Bassus	*	*I"Tenor	*	*I"Altus	*	*I"Superius	*
*I'B	*	*I'T	*	*I'A	*	*I'S	*
*clefF4	*	*clefGv2	*	*clefGv2	*	*clefG2	*
*k[]	*	*k[b-]	*	*k[]	*	*k[b-]	*
*M2/2	*	*M2/2	*	*M2/2	*	*M2/2	*
*met(C|)	*	*met(C|)	*	*met(C|)	*	*met(C|)	*
=1	=1	=1	=1	=1	=1	=1	=1
!!LO:TX:a:t=[Sabato sancto. In primo nocturno]\n[Lectio secunda]
[1A	A-	[1A	A-	1A	A-	[1a	A-
.	.	.	.	.	.	.	.
=2	=2	=2	=2	=2	=2	=2	=2
*	*	*	*	*lig	*	*	*
2A]	.	1A]	.	2c	.	[1a]	.
2D	.	.	.	2d	.	.	.
*	*	*	*	*Xlig	*	*	*
=3	=3	=3	=3	=3	=3	=3	=3
*	*	*lig	*	*	*	*	*
*lig	*	*	*	*	*	*	*
1D	.	1d	.	1f	.	[1a]	.
=4	=4	=4	=4	=4	=4	=4	=4
1F	.	1c	.	2.f	.	1a]	.
*Xlig	*	*Xlig	*	*	*	*	*
.	.	.	.	4e	.	.	.
=5	=5	=5	=5	=5	=5	=5	=5
2r	.	1G	.	1d	.	2.b-y	.
2G	.	.	.	.	.	.	.
.	.	.	.	.	.	4a	.
=6	=6	=6	=6	=6	=6	=6	=6
2C	.	2c	.	2e	.	2g	.
2D	.	4.A	.	[2f	.	2f	.
.	.	8B-y	.	.	.	.	.
=7	=7	=7	=7	=7	=7	=7	=7
1C	.	1c	.	4f]	.	1g	.
.	.	.	.	8eL	.	.	.
.	.	.	.	8dJ	.	.	.
.	.	.	.	2e	.	.	.
=8	=8	=8	=8	=8	=8	=8	=8
0F	leph.	0c	leph.	0f	leph.	0f	leph.
!!LO:LB:g=original
=9||	=9||	=9||	=9||	=9||	=9||	=9||	=9||
1F	-Quo-	1A	Quo	1c	-Quo-	1f	Quo-
=10	=10	=10	=10	=10	=10	=10	=10
1C	-mo-	1G	mo-	1e	-mo-	1g	-mo-
=11	=11	=11	=11	=11	=11	=11	=11
1F	-do	1F	-do	1f	-do	1a	-do
=12	=12	=12	=12	=12	=12	=12	=12
2F	ob-	2c	ob-	2c	ob-	2a	ob-
2A	-scu-	2c	-scu-	2f	-scu-	2a	-scu-
=13	=13	=13	=13	=13	=13	=13	=13
[1G	-ra-	[1d	-ra	[1g	-ra-	[1b-y	-ra-
=14	=14	=14	=14	=14	=14	=14	=14
2G]	.	2d]	.	2g]	.	2b-]	.
2A	-tum	2c	tum	2e	-tum	2a	-tum
!!LO:LB:g=original
=15	=15	=15	=15	=15	=15	=15	=15
1E	est	1B-y	est	1e	est	1g	est
=16	=16	=16	=16	=16	=16	=16	=16
2F	au-	1A	au-	2c	au-	1a	au-
2D	.	.	.	2f	.	.	.
=17	=17	=17	=17	=17	=17	=17	=17
1A	-rum,	1A	-rum,	1e	-rum,	1a	-rum,
=18	=18	=18	=18	=18	=18	=18	=18
2r	.	2r	.	2r	.	2r	.
2F	mu-	2A	mu-	2f	mu-	2f	mu-
=19	=19	=19	=19	=19	=19	=19	=19
1C	-ta-	1c	-ta-	1e	-ta-	1g	-ta-
=20	=20	=20	=20	=20	=20	=20	=20
2E	-tus	2c	-tus	2e	-tus	2g	-tus
[2F	est	[2c	est	[2A	est	[2a	est
!!LO:LB:g=original
=21	=21	=21	=21	=21	=21	=21	=21
2F]	.	2c]	.	2A]	.	2a]	.
2C	.	2c	co-	2e	co-	2g	co-
=22	=22	=22	=22	=22	=22	=22	=22
1r	.	2A	-lor	2.f	-lor	2a	-lor
.	.	[2G	o-	.	.	[2b-y	o-
.	.	.	.	8eL	.	.	.
.	.	.	.	8dJ	.	.	.
=23	=23	=23	=23	=23	=23	=23	=23
2r	.	2G]	.	2e	o-	2b-]	.
2c	o-	2F	-pti-	2f	-pti-	2a	-pti-
=24	=24	=24	=24	=24	=24	=24	=24
2c	-pti-	2F	-mus,	2f	-mus,	2a	-mus,
2A	-mus,	2r	.	2r	.	2r	.
=25	=25	=25	=25	=25	=25	=25	=25
2c	di-	2F	di-	2f	di-	2a	di-
2c	-sper-	2C	-sper-	2e	-sper-	2g	-sper-
=26	=26	=26	=26	=26	=26	=26	=26
*M3/2	*	*M3/2	*	*M3/2	*	*M3/2	*
2A	-si	2F	-si	2d	-si	2f	-si
1G;	sunt	1C;	sunt	1c;	sunt	1e;	sunt
!!LO:PB:g=original
=27	=27	=27	=27	=27	=27	=27	=27
*M2/2	*	*M2/2	*	*M2/2	*	*M2/2	*
2r	.	2r	.	2.e	la-	2r	.
[2C	la-	[2c	la-	.	.	[2g	la-
.	.	.	.	4e	-pi-	.	.
=28	=28	=28	=28	=28	=28	=28	=28
4C]	.	4c]	.	2e	-des	4g]	.
4C	-pi-	4c	-pi-	.	.	4g	-pi-
2C	-des	2c	-des	[2e	san-	2g	-des
=29	=29	=29	=29	=29	=29	=29	=29
2.E	san-	2.B-y	san-	1e]	.	2.g	san-
4F	-ctu-	4A	-ctu-	.	.	4a	-ctu-
=30	=30	=30	=30	=30	=30	=30	=30
2E	-a-	2B-y	-a-	2E	-ctu-	2g	-a-
2D	-ri-	2B-y	-ri-	2F	-a-	2f	-ri-
=31	=31	=31	=31	=31	=31	=31	=31
2C	-i	2c	-i	4G	-ri-	2e	-i
.	.	.	.	4G	-i	.	.
2r	.	2A	in	2c	in	2f	in
=32	=32	=32	=32	=32	=32	=32	=32
1r	.	2.B-X	ca-	2.d	ca-	2.g	ca-
.	.	4B-y	-pi-	4d	-pi-	4g	-pi-
!!LO:LB:g=original
=33	=33	=33	=33	=33	=33	=33	=33
1r	.	2.B-y	-te	2d	-te	2g	-te
.	.	.	.	2d	o-	[2b-y	o-
.	.	4A	.	.	.	.	.
=34	=34	=34	=34	=34	=34	=34	=34
2r	.	4G	.	2d	-mni-	4b-]	.
.	.	4F	.	.	.	4a	-mni-
2C	o-	2E	.	2e	-um	2g	-um
=35	=35	=35	=35	=35	=35	=35	=35
4D	-mni-	2A	o-	4r	.	2f	pla-
4F	.	.	.	2f	pla-	.	.
2C	-um	2G	-mni-	.	.	2g	-te-
.	.	.	.	4e	-te-	.	.
=36	=36	=36	=36	=36	=36	=36	=36
1F	pla-	2F	-um	1f	-a-	1a	-a-
.	.	[2c	pla-	.	.	.	.
=37	=37	=37	=37	=37	=37	=37	=37
*lig	*	*	*	*	*	*	*
2C	-te-	4c]	.	2e	.	2g	.
.	.	4B-	-te-	.	.	.	.
2F	.	2A	-a-	[2c	.	[2f	.
*Xlig	*	*	*	*	*	*	*
=38	=38	=38	=38	=38	=38	=38	=38
1C	-a-	1G	.	2c]	.	2f]	.
.	.	.	.	2c	.	2e	.
=39	=39	=39	=39	=39	=39	=39	=39
0F	-rum?	0F	-rum?	0c	-rum?	0f	-rum?
!!LO:LB:g=original
=40||	=40||	=40||	=40||	=40||	=40||	=40||	=40||
[1F	Gli-	1F	Gi-	1c	Gi-	[1a	Gli-
=41	=41	=41	=41	=41	=41	=41	=41
1F]	.	1D	.	[1f	.	1a]	.
=42	=42	=42	=42	=42	=42	=42	=42
*	*	*lig	*	*	*	*	*
1D	.	1F	.	1f]	.	1a	.
=43	=43	=43	=43	=43	=43	=43	=43
*	*	*	*	*lig	*	*	*
1E-X	.	1G	.	2B-i	.	1g	.
*	*	*Xlig	*	*	*	*	*
.	.	.	.	2c	.	.	.
*	*	*	*	*Xlig	*	*	*
=44	=44	=44	=44	=44	=44	=44	=44
1D	.	1A	.	1d	.	[1f	mel.
=45	=45	=45	=45	=45	=45	=45	=45
[1BB-i	mel.	1B-y	.	[1f	mel.	1f]	.
=46	=46	=46	=46	=46	=46	=46	=46
*	*	*	*	*	*	*lig	*
1BB-]	.	[1d	mel.	[1f]	.	1b-y	.
!!LO:LB:g=original
=47	=47	=47	=47	=47	=47	=47	=47
2.D	.	1d]	.	[1f]	.	[1a	.
4E	.	.	.	.	.	.	.
=48	=48	=48	=48	=48	=48	=48	=48
0F	.	0c	.	0f]	.	0a]	.
*	*	*	*	*	*	*Xlig	*
=49||	=49||	=49||	=49||	=49||	=49||	=49||	=49||
*	*	*	*	*lig	*	*	*
1r	.	[1F	Sed	1c	-Sed	[1a	Sed
=50	=50	=50	=50	=50	=50	=50	=50
1r	.	1F]	.	1d	.	1a]	.
*	*	*	*	*Xlig	*	*	*
=51	=51	=51	=51	=51	=51	=51	=51
1C	Sed	1E	-et	1e	et	1g	et
=52	=52	=52	=52	=52	=52	=52	=52
2.F	et	2F	la-	2c	la-	2.a	la-
.	.	[2A	-mi-	2c	-mi-	.	.
4E	.	.	.	.	.	4g	-mi-
=53	=53	=53	=53	=53	=53	=53	=53
2D	la-	4A]	.	2d	-e	2f	-e
.	.	4B-y	.	.	.	.	.
[2A	-mi-	[2c	-e	2e	nu-	[2e	nu-
!!LO:PB:g=original
=54	=54	=54	=54	=54	=54	=54	=54
*	*	*	*	*lig	*	*	*
4A]	.	4c]	.	2c	-da-	2e]	.
4G	-e	4B-y	.	.	.	.	.
2F	nu-	2A	nu-	2d	-ve-	2f	-da-
*	*	*	*	*Xlig	*	*	*
=55	=55	=55	=55	=55	=55	=55	=55
1E	-da-	2c	-da-	1e	-runt	2.g	-ve-
.	.	[2Bnj	-ve-	.	.	.	.
.	.	.	.	.	.	8fL	.
.	.	.	.	.	.	8eJ	.
=56	=56	=56	=56	=56	=56	=56	=56
2G	-ve-	2Bn]	.	1r	.	2d	.
2C	-runt	[2c	-runt	.	.	2e	-runt
=57	=57	=57	=57	=57	=57	=57	=57
1D	ma-	2c]	.	1r	.	1f	ma-
.	.	2Bni	ma-	.	.	.	.
=58	=58	=58	=58	=58	=58	=58	=58
*	*	*	*	*lig	*	*	*
1C	-mam	1c	-mam	2G	la-	1e	-mam
.	.	.	.	[2c	.	.	.
=59	=59	=59	=59	=59	=59	=59	=59
1c	la-	1r	.	4c]	.	2r	.
*	*	*	*	*Xlig	*	*	*
.	.	.	.	4d	.	.	.
.	.	.	.	2e	-cta-	2g	la-
!!LO:LB:g=original
=60	=60	=60	=60	=60	=60	=60	=60
2A	-cta-	1r	.	1f	-ve-	2a	-cta-
[2G	-ve-	.	.	.	.	[2b-y	-ve-
=61	=61	=61	=61	=61	=61	=61	=61
*	*	*	*	*lig	*	*	*
2G]	.	1r	.	2e	-runt	2b-]	.
2F	-runt	.	.	2f	.	2a	-runt
*	*	*	*	*Xlig	*	*	*
=62	=62	=62	=62	=62	=62	=62	=62
2r	.	2r	.	2r	.	2r	.
[2F	ca-	[2c	ca-	[2f	ca-	[2a	ca-
=63	=63	=63	=63	=63	=63	=63	=63
4F]	.	4c]	.	4f]	.	4a]	.
4F	-tu-	4c	-tu-	4f	-tu-	4a	-tu-
2F	-los-	2c	-los	2f	-los	2a	-los
=64	=64	=64	=64	=64	=64	=64	=64
*	*	*	*	*lig	*	*	*
2G	-su-	2B-y	su-	2d	su-	2g	.
2E	.	2G	.	2c	.	[2g	su-
*	*	*	*	*Xlig	*	*	*
=65	=65	=65	=65	=65	=65	=65	=65
1D	-os,	1A	.	2.d	.	2g]	.
.	.	.	.	.	.	2f#i	.
.	.	.	.	4c	.	.	.
!!LO:LB:g=original
=66	=66	=66	=66	=66	=66	=66	=66
*	*edit	*	*	*	*	*	*
2.d	su-	1G	-os,	4B-i	.	1g	-os,
.	.	.	.	4A	.	.	.
.	.	.	.	2G	-os,	.	.
4c	.	.	.	.	.	.	.
=67	=67	=67	=67	=67	=67	=67	=67
*	*	*	*edit	*	*	*	*edit
4B-i	.	2.d	su-	2r	.	1b-y	su-
4A	.	.	.	.	.	.	.
*	*	*	*	*	*edit	*	*
2G	.	.	.	2d	su-	.	.
.	.	4B-y	.	.	.	.	.
=68	=68	=68	=68	=68	=68	=68	=68
*lig	*	*	*	*	*	*	*
2F	.	1c	.	2f	.	2a	.
2E	.	.	.	[2c	.	[2g	.
*Xlig	*	*	*	*	*	*	*
=69	=69	=69	=69	=69	=69	=69	=69
*	*	*lig	*	*	*	*	*
1D	.	1F	.	2c]	.	4g]	.
.	.	.	.	.	.	4f	.
.	.	.	.	2B	.	[2f	.
=70	=70	=70	=70	=70	=70	=70	=70
1C	.	1G	.	[1c	os.	2f]	.
*	*	*Xlig	*	*	*	*	*
.	.	.	.	.	.	2e	.
=71	=71	=71	=71	=71	=71	=71	=71
0F	os.	0F	os.	0c]	.	0f	os.
!!LO:LB:g=original
=72||	=72||	=72||	=72||	=72||	=72||	=72||	=72||
*	*	*	*Xedit	*	*	*	*
1r	.	1F	-Ie-	1r	.	1r	.
=73	=73	=73	=73	=73	=73	=73	=73
*	*	*	*	*	*Xedit	*	*
1r	.	2B-y	-ru-	1G	-Ie-	1r	.
.	.	2B-y	-sa-	.	.	.	.
=74	=74	=74	=74	=74	=74	=74	=74
*	*Xedit	*	*	*	*	*	*Xedit
1BB-X	-Ie-	1d	-lem,	2B-X	-ru-	1f	-Ie-
.	.	.	.	2B-	-sa-	.	.
=75	=75	=75	=75	=75	=75	=75	=75
2E-X	-ru-	1r	.	1B-i	-lem,	2g	-ru-
2E-	-sa-	.	.	.	.	2g	-sa-
=76	=76	=76	=76	=76	=76	=76	=76
1E-X	-lem,	1B-y	Ie-	2r	.	1g	-lem,
.	.	.	.	[2e-X	Ie-	.	.
=77	=77	=77	=77	=77	=77	=77	=77
2F	Ie-	2A	-ru-	4e-]	.	1r	.
.	.	.	.	8dL	.	.	.
.	.	.	.	8cJ	.	.	.
2F	-ru-	2A	-sa-	2d	.	.	.
=78	=78	=78	=78	=78	=78	=78	=78
2E-X	.	1G	-lem,	1g	-ru-	1b-y	Ie-
2E-	-sa-	.	.	.	.	.	.
!!LO:PB:g=original
=79	=79	=79	=79	=79	=79	=79	=79
2r	.	2.d	.	1f	-sa-	2b-y	-ru-
2F	.	.	.	.	.	2a	.
.	.	4c	.	.	.	.	.
=80	=80	=80	=80	=80	=80	=80	=80
1G	-lem,	1B-y	.	[1d	lem,	1g	-sa-
=81	=81	=81	=81	=81	=81	=81	=81
1D	.	1A	.	1d]	.	1a	-lem,
=82	=82	=82	=82	=82	=82	=82	=82
2D	con-	2A	con-	2d	-con-	2d	con-
[2D	-ver-	[2A	-ver-	[2d	-ver-	[2f	-ver-
=83	=83	=83	=83	=83	=83	=83	=83
4D]	.	4A]	.	4d]	.	4f]	.
4D	-te-	4A	-te-	4d	-te-	4f	-te-
2D	-re	2A	-re	2d	-re	2f	-re
=84	=84	=84	=84	=84	=84	=84	=84
2G	ad	2B-y	ad	2d	ad	2g	ad
[2F	Do-	[2c	Do-	[2f	Do-	[2a	Do-
=85	=85	=85	=85	=85	=85	=85	=85
4F]	.	4c]	.	4f]	.	4a]	.
4G	-mi-	4B-y	-mi-	4e	-mi-	4g	-mi-
2G	-num	2G	-num	2d	-num	[2g	-num
!!LO:LB:g=original
=86	=86	=86	=86	=86	=86	=86	=86
1r	.	1r	.	4e	.	4g]	.
.	.	.	.	4d	.	4f	.
.	.	.	.	4c#j	.	4e	.
.	.	.	.	4B	.	4d	.
=87	=87	=87	=87	=87	=87	=87	=87
2A	De-	1r	.	2.c#j	De-	2e	De-
2A	-um	.	.	.	.	2e	-um
.	.	.	.	8BL	.	.	.
.	.	.	.	8c#jJ	.	.	.
=88	=88	=88	=88	=88	=88	=88	=88
2B-i	tu-	2G	De-	2d	-um	2d	tu-
[2c	.	[2F	.	[2f	tu-	[2a	.
=89	=89	=89	=89	=89	=89	=89	=89
4c]	.	2F]	.	4f]	.	4a]	.
4B-i	.	.	.	4e	.	4g	.
2G	.	2G	.	2d	.	[2g	.
=90	=90	=90	=90	=90	=90	=90	=90
2A	.	2D	-um,	1d	.	2g]	.
*	*	*	*edit	*	*	*	*
2D	-um,	2A	tu-	.	.	2f#i	.
=91	=91	=91	=91	=91	=91	=91	=91
*	*edit	*	*	*lig	*	*	*
2.E-X	tu-	4G	.	2B-i	.	1g	-um,
.	.	2B-y	.	.	.	.	.
.	.	.	.	2e-i	.	.	.
*	*	*	*	*Xlig	*	*	*
8DL	.	4c	.	.	.	.	.
8CJ	.	.	.	.	.	.	.
!!LO:LB:g=original
=92	=92	=92	=92	=92	=92	=92	=92
*	*	*	*	*	*	*	*edit
2.BB-X	.	1d	.	[1f	.	1b-y	tu-
4C	.	.	.	.	.	.	.
=93	=93	=93	=93	=93	=93	=93	=93
*	*	*	*	*	*	*lig	*
2D	.	2d	.	2f]	.	2a	.
2E	.	4c	.	2e	.	2g	.
*	*	*	*	*	*	*Xlig	*
.	.	4B-y	.	.	.	.	.
=94	=94	=94	=94	=94	=94	=94	=94
*	*	*	*	*	*	*col	*
1F	.	1A	.	2c	.	2.cc	.
.	.	.	.	[2f	.	.	.
*	*	*	*	*	*	*lig	*
.	.	.	.	.	.	4b-y	.
*	*	*	*	*	*	*Xcol	*
=95	=95	=95	=95	=95	=95	=95	=95
2F	.	2c	.	2f]	.	2a	.
2G	.	2B-y	.	2d	.	[2g	.
=96	=96	=96	=96	=96	=96	=96	=96
*lig	*	*	*	*	*	*	*
2C	.	2c	.	4c	.	2g]	.
.	.	.	.	2c	.	.	.
2D	.	2F	.	.	.	[2f	.
*Xlig	*	*	*	*	*	*	*
.	.	.	.	4B	.	.	.
=97	=97	=97	=97	=97	=97	=97	=97
1C	.	1G	.	[1cl	um.	2f]	.
.	.	.	.	.	.	2e	.
=98	=98	=98	=98	=98	=98	=98	=98
1Fl	um.	1Fl	um.	1c]	.	1fl	um.
==	==	==	==	==	==	==	==
*-	*-	*-	*-	*-	*-	*-	*-
!!!system-decoration: [*]
!!!RDF**kern: j = editorial accidental, optional, paren up
!!!RDF**kern: i = editorial accidental
!!!RDF**kern: l = terminal breve
!!!PTL: Gaspar van Weerbeke: Collected Works. V. Settings of Liturgical Texts, Songs, and Instrumental Works
!!!PPR: American Institute of Musicology
!!!PC#: Corpus Mensurabilis Musicae 106/V
!!!PDT: 2020
!!!PED: Pavanello, Agnese
!!!YEC: Copyright 2018, Pavanello, Agnese
!!!YEM: CC-BY-NC 4.0 (https://creativecommons.org/licenses/by-nc/4.0/legalcode)
!!!EED: Zybina, Karina
!!!EEV: 2021/08/11
